raw-svg/receipt.svg

<svg fill="none" height="24" viewBox="0 0 24 24" width="24" xmlns="http://www.w3.org/2000/svg"><path clip-rule="evenodd" d="m8.60104 6.45958 1.39896-1.39896 1.399 1.39896c.3319.33195.8701.33194 1.202 0l1.399-1.39896 1.399 1.39896c.3319.33195.8701.33194 1.202 0l.649-.64896v12.37868l-.649-.649c-.3319-.3319-.8701-.3319-1.202 0l-1.399 1.399-1.399-1.399c-.3319-.3319-.8701-.3319-1.202 0l-1.399 1.399-1.39896-1.399c-.33195-.3319-.87014-.3319-1.20208 0l-.64896.649v-12.37868l.64896.64896c.33195.33195.87014.33194 1.20208 0zm1.99996-2.91924c-.3319-.33194-.87009-.33195-1.20204 0l-1.39896 1.39896-1.29896-1.29896c-.53547-.53547-1.45104-.15622-1.45104.60104v15.51712c0 .7573.91557 1.1366 1.45104.6011l1.29896-1.299 1.39896 1.399c.33194.3319.87014.3319 1.20204 0l1.399-1.399 1.399 1.399c.3319.3319.8701.3319 1.202 0l1.399-1.399 1.299 1.299c.5354.5355 1.451.1562 1.451-.6011v-15.51712c0-.75726-.9156-1.13651-1.451-.60104l-1.299 1.29896-1.399-1.39896c-.3319-.33194-.8701-.33195-1.202 0l-1.399 1.39896zm-.601 4.70966c-.41421 0-.75.33579-.75.75s.33579.75.75.75h4c.4142 0 .75-.33579.75-.75s-.3358-.75-.75-.75zm-.75 3.75c0-.4142.33579-.75.75-.75h4c.4142 0 .75.3358.75.75s-.3358.75-.75.75h-4c-.41421 0-.75-.3358-.75-.75zm.75 2.25c-.41421 0-.75.3358-.75.75s.33579.75.75.75h4c.4142 0 .75-.3358.75-.75s-.3358-.75-.75-.75z" fill="#000" fill-rule="evenodd"/></svg>

<svg width="24" height="24" viewBox="0 0 24 24" fill="none" xmlns="http://www.w3.org/2000/svg">
<path fill-rule="evenodd" clip-rule="evenodd" d="M8.60104 6.45958L10 5.06062L11.399 6.45958C11.7309 6.79153 12.2691 6.79152 12.601 6.45958L14 5.06062L15.399 6.45958C15.7309 6.79153 16.2691 6.79152 16.601 6.45958L17.25 5.81062V18.1893L16.601 17.5403C16.2691 17.2084 15.7309 17.2084 15.399 17.5403L14 18.9393L12.601 17.5403C12.2691 17.2084 11.7309 17.2084 11.399 17.5403L10 18.9393L8.60104 17.5403C8.26909 17.2084 7.7309 17.2084 7.39896 17.5403L6.75 18.1893V5.81062L7.39896 6.45958C7.73091 6.79153 8.2691 6.79152 8.60104 6.45958ZM10.601 3.54034C10.2691 3.2084 9.73091 3.20839 9.39896 3.54034L8 4.9393L6.70104 3.64034C6.16557 3.10487 5.25 3.48412 5.25 4.24138V19.7585C5.25 20.5158 6.16557 20.8951 6.70104 20.3596L8 19.0606L9.39896 20.4596C9.7309 20.7915 10.2691 20.7915 10.601 20.4596L12 19.0606L13.399 20.4596C13.7309 20.7915 14.2691 20.7915 14.601 20.4596L16 19.0606L17.299 20.3596C17.8344 20.8951 18.75 20.5158 18.75 19.7585V4.24138C18.75 3.48412 17.8344 3.10487 17.299 3.64034L16 4.9393L14.601 3.54034C14.2691 3.2084 13.7309 3.20839 13.399 3.54034L12 4.9393L10.601 3.54034ZM10 8.25C9.58579 8.25 9.25 8.58579 9.25 9C9.25 9.41421 9.58579 9.75 10 9.75H14C14.4142 9.75 14.75 9.41421 14.75 9C14.75 8.58579 14.4142 8.25 14 8.25H10ZM9.25 12C9.25 11.5858 9.58579 11.25 10 11.25H14C14.4142 11.25 14.75 11.5858 14.75 12C14.75 12.4142 14.4142 12.75 14 12.75H10C9.58579 12.75 9.25 12.4142 9.25 12ZM10 14.25C9.58579 14.25 9.25 14.5858 9.25 15C9.25 15.4142 9.58579 15.75 10 15.75H14C14.4142 15.75 14.75 15.4142 14.75 15C14.75 14.5858 14.4142 14.25 14 14.25H10Z" fill="black"/>
</svg>
